X: 31038
T: Paddy Carey
R: jig
M: 6/8
K: Cmajor
|:E|G2c cBc|e2c cBc|A2d dcd|f2d BAG|
G2c cBc|e2c cBc|BAG GAB|c3 c2:|
|:G|c2ef2a|g2a gec|c2ef2a|gec d2e|
c2ef2a|g2a gec|cBc edc|BAB c2:|

